X:93
T: WAS WOELLN WIR AUF DEN ABEND THUN
N: E1120C
O: Europa, Mitteleuropa, Deutschland
R: Trink -, Zech - Lied
M: 4/4
L: 1/4
K: G
D | GGAA | BBA2 |
BGGF | G2z
D | GGAA | BBA2 |
BGGF | G2z
G | ddAA | BBA2 |
ddAA | BBA2 |
BGGF | G3

@@@ Tune index: 4777
